X:1
T:Already Condemned
T:Already Condemned
T: Francis Augustus Blackmer 
T:Frances Jane (Fanny) Crosby, 1888
T:Public Domain Courtesy of the Cyber Hymnal™
T:Public Domain Courtesy of the Cyber Hymnal™
C:Francis Augustus Blackmer
Z:Public Domain
Z:Courtesy of the Cyber Hymnal™
%%score ( 1 2 ) ( 3 4 )
L:1/8
Q:1/4=100
M:4/4
K:C
V:1 treble 
V:2 treble 
V:3 bass 
V:4 bass 
V:1
 (CE) | [EG]2 [EG]>[FA] [EG]2 [CE][CG] | [Ec]2 [Ec]>[Fd] [Fc]3 [GB] | %3
w: 1.~God *|so loved the world, that in|mer- cy He gave His|
w: 2.~Al- *|rea- dy con- demned in the|sight of the Lord, Be-|
w: 3.~Al- *|rea- dy con- demned, un- be-|liev- er, thou art; O|
w: 4.~Al- *|rea- dy con- demned; wilt thou|turn from thy sin? Then|
 [FA]2 [FA][FB] [FA]2 [EG][CE] | [CE]2 [B,D]>[^A,^C] [B,D]2 (=CE) | %5
w: Son as a ran- som, lost|sin- ners to save; O *|
w: cause thou art turn- ing a-|way from His Word; Thou *|
w: think what a sen- tence hangs|o- ver thy heart; Yet *|
w: yield to the Spir- it now|plead- ing with- in; Thro’ *|
 [EG]2 [EG]>[FA] [EG]2 [CE][CG] | [Ec]2 [Ec]>[Fd] [Ec]3 [GB] | [FA]2 [FA][FB] [FA]2 [^Fd][Fc] | %8
w: thou who hast ne- ver be-|lieved on His name, Re-|mem- ber the truth that the|
w: choos- est the e- vil, re-|ject- est the right; Thou|lov- est the dark- ness far|
w: why wilt thou per- ish when|thou canst be free? If|thou wilt ac- cept it, there’s|
w: faith and re- pen- tance give|Je- sus thy heart; De-|lay not a mo- ment, but|
 [GB]2 [GB]>[^FA] !fermata!G3 ||"^Refrain" [EG] | [Ec]3 [Ec] [DB]3 [DB] | %11
w: Scrip- tures pro- claim:|||
w: bet- ter than light.|||
w: par- don for thee.|||
w: come as thou art.|||
 [FA]2 [FB]>[FA] [EG]3 [EG] | [EG]2 [FA][FB] [Ec]2 [EG][Ec] | [DB]2 [DB][Ec] [Fd]3 [FG] | %14
w: |||
w: |||
w: |||
w: |||
 [Ec]3 [Ec] [DB]3 [DB] | [FA]2 [FB]>[FA] [EG]3 [EG] | [EG]2 [Ec][Fd] [Ge][Ec] z [EG] | %17
w: |||
w: |||
w: |||
w: |||
 [FA]2 [DB]>[Ec] !fermata![Ec]2 |] %18
w: |
w: |
w: |
w: |
V:2
 C2 | x8 | x8 | x8 | x6 C2 | x8 | x8 | x8 | x4 G3 || x | x8 | x8 | x8 | x8 | x8 | x8 | x8 | x6 |] %18
V:3
 (E,G,) | [C,C]2 [C,C]>[C,C] [C,C]2 [C,G,][C,E,] | [C,G,]2 [C,G,]>[C,G,] (G,2 C)[E,C] | %3
w: ~ *|~ ~ ~ ~ ~ ~|~ ~ ~ ~ * ~|
 [F,C]2 [F,C][F,C] [C,C]2 [C,C][C,G,] | [G,,G,]2 [G,,G,]>[G,,G,] [G,,G,]2 (E,G,) | %5
w: ~ ~ ~ ~ ~ ~|~ ~ ~ ~ ~ *|
 [C,C]2 [C,C]>[C,C] [C,C]2 [C,G,][C,E,] | [C,G,]2 [C,G,]>[C,G,] (G,2 C)[E,C] | %7
w: ~ ~ ~ ~ ~ ~|~ ~ ~ ~ * ~|
 [F,C]2 [F,C][F,C] (CA,)[D,A,][D,A,] | [D,D]2 [D,D]>[D,C] !fermata![G,,B,]3 || [C,G,] | %10
w: ~ ~ ~ ~ * ~ ~|~ ~ ~ ~|Con-|
 [C,G,]3 [C,G,] [G,,G,]3 [G,,G,] | [G,,B,]2 [G,,B,]>[G,,B,] [C,C]3 [C,C] | %12
w: demned! Con- demned! al-|rea- dy con- demned! On|
 [C,C]2 [C,C][C,G,] [C,G,]2 [C,C][C,G,] | G,2 G,G, G,3 G, | [C,G,]3 [C,G,] [G,,G,]3 [G,,G,] | %15
w: Je- sus the Sav- ior thou|hast not be- lieved; Con-|demned! Con- demned! al-|
 [G,,B,]2 [G,,B,]>[G,,B,] [C,C]3 [C,C] | [C,C]2 [C,C][C,B,] [C,C][C,C] z [C,C] | %17
w: rea- dy con- demned! The|life that He of- fers thou|
 [F,C]2 G,>G, !fermata![C,G,]2 |] %18
w: hast not re- ceived.|
V:4
 C,2 | x8 | x4 C,3 x | x8 | x6 C,2 | x8 | x4 C,3 x | x4 F,2 x2 | x7 || x | x8 | x8 | x8 | %13
 G,2 G,G, x2 G, x | x8 | x8 | x8 | x2 G,>G, x2 |] %18

